frontend/public/book.svg

<svg width="22" height="20" viewBox="0 0 22 20" fill="none" xmlns="http://www.w3.org/2000/svg">
<path fill-rule="evenodd" clip-rule="evenodd" d="M0 1C0 0.447715 0.447715 0 1 0H7C8.32608 0 9.59785 0.526784 10.5355 1.46447C10.7038 1.63275 10.8589 1.81178 11 1.99997C11.1411 1.81178 11.2962 1.63275 11.4645 1.46447C12.4021 0.526784 13.6739 0 15 0H21C21.5523 0 22 0.447715 22 1V16C22 16.5523 21.5523 17 21 17H14C13.4696 17 12.9609 17.2107 12.5858 17.5858C12.2107 17.9609 12 18.4696 12 19C12 19.5523 11.5523 20 11 20C10.4477 20 10 19.5523 10 19C10 18.4696 9.78929 17.9609 9.41421 17.5858C9.03914 17.2107 8.53043 17 8 17H1C0.447715 17 0 16.5523 0 16V1ZM10 15.5359C9.39709 15.1878 8.70823 15 8 15H2V2H7C7.79565 2 8.55871 2.31607 9.12132 2.87868C9.68393 3.44129 10 4.20435 10 5V15.5359ZM12 15.5359C12.6029 15.1878 13.2918 15 14 15H20V2H15C14.2044 2 13.4413 2.31607 12.8787 2.87868C12.3161 3.44129 12 4.20435 12 5V15.5359Z" fill="#284CE5"/>
</svg>

<svg xmlns="http://www.w3.org/2000/svg" width="22" height="20" fill="none"><path fill="#284CE5" fill-rule="evenodd" d="M0 1a1 1 0 0 1 1-1h6a5 5 0 0 1 4 2q.212-.282.464-.536A5 5 0 0 1 15 0h6a1 1 0 0 1 1 1v15a1 1 0 0 1-1 1h-7a2 2 0 0 0-2 2 1 1 0 1 1-2 0 2 2 0 0 0-2-2H1a1 1 0 0 1-1-1zm10 14.536A4 4 0 0 0 8 15H2V2h5a3 3 0 0 1 3 3zm2 0A4 4 0 0 1 14 15h6V2h-5a3 3 0 0 0-3 3z" clip-rule="evenodd"/></svg>
